Icons_UI/backup/bcpst original/b.svg

<svg xmlns="http://www.w3.org/2000/svg" viewBox="0 0 692 500">
  <defs>
    <linearGradient id="b" x1="467.5" x2="467.5" y1="1550" y2="1241" gradientUnits="userSpaceOnUse" spreadMethod="reflect">
      <stop offset="0" stop-color="#f2f2f2"/>
      <stop offset=".71" stop-color="#c05be9"/>
      <stop offset="1" stop-color="#c05be9"/>
    </linearGradient>
  </defs>
  <g transform="translate(-122, -1222)">
  <g fill-rule="evenodd">
    <path fill="#d182f0" d="M415.522 1493c-52.208 0-94.522-54.66-94.522-136.09 0-83.22 39.176-120.85 55.751-133.04a9.614 9.614 0 0 1 12.84 1.31c17.153 19.05 67.917 79.71 67.917 130.6 0 81.44 10.165 137.22-41.986 137.22m104.956 0c52.209 0 94.522-54.66 94.522-136.09 0-83.22-39.176-120.85-55.751-133.04a9.614 9.614 0 0 0-12.84 1.31c-17.152 19.05-67.917 79.71-67.917 130.6 0 81.44-10.165 137.22 41.986 137.22"/>
    <path fill="#e5acf4" d="M468 1513.05c-99.512-100.98-63.942-125.27-275.132-196.54-4.755-1.61-9.951.7-11.934 5.31-34.724 81.09-26.351 141.55 80.861 171.07-41.21-.26-84.557 4.79-131.137 9.47-5.288.53-9.143 5.25-8.609 10.53l.005.05c6.256 59.61 69.62 145.24 215.848 98.5a51.5 51.5 0 0 0-4.639 21.06c0 51.61 99.398 81.25 127.423 88.58a29.46 29.46 0 0 0 14.628 0c28.026-7.33 127.423-36.97 127.423-88.58 0-7.44-1.713-14.44-4.639-21.04 146.209 46.74 209.573-38.89 215.848-98.5.559-5.29-3.274-10.02-8.559-10.58h-.045c-46.58-4.68-89.908-9.75-131.137-9.47 107.212-29.52 115.566-89.98 80.861-171.07a9.624 9.624 0 0 0-11.933-5.33c-211.191 71.25-175.62 95.56-275.133 196.54"/>
    <path fill="url(#b)" d="M640.061 1270.05c-3.342-4.93-10.039-6.21-14.957-2.86a10.7 10.7 0 0 0-2.944 2.99l-62.662 95.66-8.19-.02c0-.44.096-.85.096-1.29 0-70.9-61.182-111.8-79.045-122.23a9.66 9.66 0 0 0-9.671 0c-17.862 10.43-79.082 51.33-79.082 122.23 0 .44.096.85.096 1.29l-8.191.02-62.682-95.66c-3.273-4.97-9.951-6.35-14.916-3.07a10.8 10.8 0 0 0-2.984 2.96c-27.246 40.22-46.877 90.1-35.763 144.07 21.111 102.64 112.788 153.17 208.368 130.52 95.521 22.65 187.198-27.86 208.31-130.52 11.094-53.99-8.537-103.87-35.783-144.09"/>
    <path fill="#d182f0" d="M468.019 1606c-46.408 0-84.019-44.4-84.019-110.52 0-73.01 60.96-115.21 79.034-126.1a9.7 9.7 0 0 1 9.971 0C491.06 1380.29 552 1422.47 552 1495.5c0 66.1-37.611 110.5-83.981 110.5"/>
    <path fill="#e685ed" d="M737 1388.73a9.677 9.677 0 0 0-9.661-9.7c-.746 0-1.49.08-2.216.25-51.397 12.4-256.949 71.63-257.603 225.99-.674-154.36-206.225-213.59-257.623-225.99-5.152-1.27-10.354 1.89-11.62 7.04-.194.79-.287 1.6-.276 2.41.404 47.2 19.231 217.23 269.461 217.27h.077c250.231-.04 269.057-170.07 269.461-217.27"/>
  </g>
  </g>
</svg>

<svg width="692" height="500" xmlns="http://www.w3.org/2000/svg" xmlns:xlink="http://www.w3.org/1999/xlink" xml:space="preserve" overflow="hidden"><defs><clipPath id="clip0"><rect x="122" y="1222" width="692" height="500"/></clipPath><linearGradient x1="467.5" y1="1550" x2="467.5" y2="1241" gradientUnits="userSpaceOnUse" spreadMethod="reflect" id="fill1"><stop offset="0" stop-color="#F2F2F2"/><stop offset="0.71" stop-color="#C05BE9"/><stop offset="1" stop-color="#C05BE9"/></linearGradient></defs><g clip-path="url(#clip0)" transform="translate(-122 -1222)"><path d="M415.522 1493C363.314 1493 321 1438.34 321 1356.91 321 1273.69 360.176 1236.06 376.751 1223.87 380.733 1220.94 386.281 1221.51 389.591 1225.18 406.744 1244.23 457.508 1304.89 457.508 1355.78 457.508 1437.22 467.673 1493 415.522 1493ZM520.478 1493C572.687 1493 615 1438.34 615 1356.91 615 1273.69 575.824 1236.06 559.249 1223.87 555.268 1220.94 549.719 1221.51 546.409 1225.18 529.257 1244.23 478.492 1304.89 478.492 1355.78 478.492 1437.22 468.327 1493 520.478 1493Z" fill="#D182F0" fill-rule="evenodd"/><path d="M468 1513.05C368.488 1412.07 404.058 1387.78 192.868 1316.51 188.113 1314.9 182.917 1317.21 180.934 1321.82 146.21 1402.91 154.583 1463.37 261.795 1492.89 220.585 1492.63 177.238 1497.68 130.658 1502.36 125.37 1502.89 121.515 1507.61 122.049 1512.89 122.051 1512.91 122.052 1512.92 122.054 1512.94 128.31 1572.55 191.674 1658.18 337.902 1611.44 334.887 1618.05 333.306 1625.23 333.263 1632.5 333.263 1684.11 432.661 1713.75 460.686 1721.08 465.484 1722.31 470.516 1722.31 475.314 1721.08 503.34 1713.75 602.737 1684.11 602.737 1632.5 602.737 1625.06 601.024 1618.06 598.098 1611.46 744.307 1658.2 807.671 1572.57 813.946 1512.96 814.505 1507.67 810.672 1502.94 805.387 1502.38 805.372 1502.38 805.357 1502.38 805.342 1502.38 758.762 1497.7 715.434 1492.63 674.205 1492.91 781.417 1463.39 789.771 1402.93 755.066 1321.84 753.09 1317.22 747.892 1314.9 743.133 1316.51 531.942 1387.76 567.513 1412.07 468 1513.05Z" fill="#E5ACF4" fill-rule="evenodd"/><path d="M640.061 1270.05C636.719 1265.12 630.022 1263.84 625.104 1267.19 623.936 1267.98 622.936 1269 622.16 1270.18L559.498 1365.84 551.308 1365.82C551.308 1365.38 551.404 1364.97 551.404 1364.53 551.404 1293.63 490.222 1252.73 472.359 1242.3 469.368 1240.57 465.68 1240.57 462.688 1242.3 444.826 1252.73 383.606 1293.63 383.606 1364.53 383.606 1364.97 383.702 1365.38 383.702 1365.82L375.511 1365.84 312.829 1270.18C309.556 1265.21 302.878 1263.83 297.913 1267.11 296.735 1267.89 295.721 1268.9 294.929 1270.07 267.683 1310.29 248.052 1360.17 259.166 1414.14 280.277 1516.78 371.954 1567.31 467.534 1544.66 563.055 1567.31 654.732 1516.8 675.844 1414.14 686.938 1360.15 667.307 1310.27 640.061 1270.05Z" fill="url(#fill1)" fill-rule="evenodd"/><path d="M468.019 1606C421.611 1606 384 1561.6 384 1495.48 384 1422.47 444.96 1380.27 463.034 1369.38 466.101 1367.54 469.938 1367.54 473.005 1369.38 491.06 1380.29 552 1422.47 552 1495.5 552 1561.6 514.389 1606 468.019 1606Z" fill="#D182F0" fill-rule="evenodd"/><path d="M737 1388.73C737.012 1383.38 732.686 1379.04 727.339 1379.03 726.593 1379.03 725.849 1379.11 725.123 1379.28 673.726 1391.68 468.174 1450.91 467.52 1605.27 466.846 1450.91 261.295 1391.68 209.897 1379.28 204.745 1378.01 199.543 1381.17 198.277 1386.32 198.083 1387.11 197.99 1387.92 198.001 1388.73 198.405 1435.93 217.232 1605.96 467.462 1606L467.539 1606C717.77 1605.96 736.596 1435.93 737 1388.73Z" fill="#E685ED" fill-rule="evenodd"/></g></svg>
